X: 58
T: THE PARTING GLASS
B: O'Neill's 58
M: C
L: 1/8
Z: Transcribed by John Chambers <jc@trillian.mit.edu>
N: "Slow"
N: "Collected by F.O'Neill"
K:A
(e>d) \
| c2(B>c) A2(AB) | (cd)(ec) d2(c>d) | e2a>f =gf(ed) | c2A2 G2(e>d) |
| c2(B>c) A2(AB) | (cd)(ec) Hd2(c>d) | e2a>f (=gf)(ed) | c2A2 A2 ||
|| (e>f) \
| (=gf)(ga) (gfed) | e2a2 a2(ba) | (=gfed) (cB)(de) | e2=G2 G2(e>d) |
| c2(B>c) A2(AB) | (cd)(ec) Hd2(c>d) | e2a>f (=gf)(ed) | c2A2 A2 ||


